X: 1000
T: Her Gece Semâda Ararım Seni
C: Bîmen Şen
O: Turkey
F: http://compmusic.upf.edu/node/140
N: kurdilihicazkar--sarki--aksak--her_gece--bimen_sen
N: makam= kurdilihicazkar
N: form= sarki
N: usul= aksak = 9/8
M: 9/8
L: 1/16
K: C _B _e _A 
Q: 1/4=216
%%MIDI tuningsystem comma53
g16 z2 | d16z2  | c16 z2 | B3AG12z2  | b3=a g4 f3_3/4e d4 z2 | \
w:  ARANAĞME  |   |   |   |   | 
f3_3/4ed4_e3dc4B2  | 
w:   | 
e3d c2d2 B2A2 A4 G2 | G6 ABcd _2/4efg6  | \
w:   |   | 
g16 z2 | d16z2  | c16 z2 | 
w:  ARANAĞME  |   |   | 
B3AG12z2  | b3=a g4 f3_3/4e d4 z2 | f3_3/4ed4_e3dc4B2  | \
w:   |   |   | 
e3d c2d2 B2A2 A4 G2 | 
w:   | 
G6 ABcd _2/4efg6  | c6g2 g4 g6 | =a4b2 a2g2 ^f2g4z2  | \
w:   |  Her  *  ge ce   |  se mâ *  da   | 
g4 =a4 b4 a2g2 f2 | 
w:  a ra rım  se  | 
b8b2 =a2a2 g2f2  | g2=a2 f2e2 e2d2 d6 | \
w:  ni    |  Her  *  *  *  ge *  ce   | 
d4e2 d2c2 _2/4B2c4z2  | =a2g2 g2f2 f2_2/4e2 g2_7/8e2 d2 | 
w:  se mâ *  da   |  a *  ra *  rım  *  se  | 
d6 _2/4efgf efg6  | g8 g4 g4 f2 | f4g2 f2e2 d2e6  | \
w:  ni   SAZ  |  Yıl dı za   |  meh tâ *  ba   | 
d2e2 g2f2 e2d2 c2B2 d2 | 
w:  so *  ra *  rım  *  se  | 
c6 B2c2 {e}dcc6  | c2d2 B2A2 A2G2 G6 | \
w:  ni    |  Yıl *  *  *  dı *  za   | 
G4A2 G2F2 _2/4E2F4z2  | d2c2 c2B2 B2A2 c2A2 G2 | 
w:  meh tâ *  ba   |  so *  ra *  rım  *  se  | 
G6 b2=a2 c'2b6  | b8 b4 b4 =a2 | =a4b2 a2g2 ^f2g4z2  | \
w:  ni   SAZ  |  Mes tâ ne   |  ağ la *  yıp   | 
g4 d'4 d'4 d'4 c'2 | 
w:  a na rım  se  | 
c'4d'2 c'2b2 =a2b4z2  | =a2b2 d'2c'2 b2a2 a2g2 f2 | \
w:  ni    |  Mes *  *  *  tâ *  ne   | 
g2 =a2f2 e2e2 d2d4c2  | 
w:  ağ *  *  *  la *  yıp   | 
=a2g2 g2f2 f2_2/4e2 g2_3/4e2 d2 | \
w:  a *  na *  rım  *  se  | 
d6 _3/4efgf efg6  | g4 g4 g4 g4 f2 | 
w:  ni   SAZ  |  Gi *  rer sin   | 
f4g2 f2e2 d2e4z2  | d2e2 g2f2 e2d2 c2B2 d2 | \
w:  rü ya *  ma   |  sa *  ra *  rım  *  se  | 
c6 B2c2 dcc4z2  | 
w:  ni    | 
c2d2 B2A2 A2G2 G4 z2 | G4A2 G2F2 =E2F4z2  | \
w:  Gi *  *  *  rer *  sin   |  rü ya *  ma   | 
d2c2 c2B2 B2A2 c2A2 G2 | 
w:  sa *  ra *  rım  *  se  | 
G6 ABcd _3/4efg4z2  | z20  | g6=a4b4a4g2 | \
w:  ni   SAZ  |  |  Gon ca  zan  | 
g4b2=a2g2g2f2g6  | 
w:  ne *  de *  rim   | 
g6=a4b4a2g2f2 | b6b4b2=a2a4g2  | g6=a2b2a2g2g4f2 | \
w:  kok la rım  se  |  ni    |  Gon ca  *  zan  | 
f4_3/4e2e2d2d4d4c2  | 
w:  ne *  de *  rim   | 
=a4g2g2f2f2_3/4e2e4d2 | d4f2_3/4e2d2e2f2g6  | \
w:  kok *  la *  rım  *  se  |  ni   SAZ  | 
f6g4g4g4f2 | f4g2g2f2e2d2e6  | 
w:  Sî nem de   |  can  *  gi *  bi   | 
d4e2g2f2e2d2c2B2d2 | z18 | c6 B2c2 dcc6  | \
w:  sak *  la *  rım  *  se  |  |  ni    | 
c2d2 B2A2 A2G2 G6 | 
w:  Sî *  *  *  nem *  de   | 
G4A2 G2F2 _2/4E2F6  | d2c2 c2B2 B2A2 c2A2 G2 | \
w:  can  gi *  bi   |  sak *  la *  rım  *  se  | 
G6 dedc BAG6  | 
w:  ni    | 
|


